!!!!SEGMENT: pl-sa--372-a-viii-12--001_anonim--plancti-gorzkie-lzale.krn
!!!cenid: 17xx:1707
!!!COM: Anonim
!!!COM-rismid: pe30004985
!!!CDT:
!!!CNT:
!!!GTL: Plancti
!!!OTL: Gorzkie żale
!!!PDT:
!!!AGN:
!!!SMS-siglum: PL-SA
!!!SMS-shelfmark: 372/A VIII 12
!!!SMS-shelfwork: 001 G
!!!SMS-variant:
!!!SMS-altvar:
!!!NIFC-rismid: 1001041677
!!!URL-scan: http://bc.bdsandomierz.pl/dlibra/publication/1676/edition/1644/content
!!!ONB-nifc: UWAGA: Planctus Pierwszy
!!!AIN: 1 organ 1 soprn 1 tenor 2 violn
!!!key: c
**kern	**fba	**kern	**kern	**kern	**text	**kern	**text
*	*	*group2	*group2	*group1	*	*group1	*
*part5	*part5	*part4	*part3	*part2	*part2	*part1	*part1
*staff5	*	*staff4	*staff3	*staff2	*staff2	*staff1	*staff1
*>[A,B,B,C,D,D,E,F,F,G,H,H,I,J,J]	*	*>[A,B,B,C,D,D,E,F,F,G,H,H,I,J,J]	*>[A,B,B,C,D,D,E,F,F,G,H,H,I,J,J]	*>[A,B,B,C,D,D,E,F,F,G,H,H,I,J,J]	*	*>[A,B,B,C,D,D,E,F,F,G,H,H,I,J,J]	*
*>A	*	*>A	*>A	*>A	*	*>A	*
*I"[Organo]	*	*I"Violino 2do	*I"Violino 1mo.	*I"Tenore 1mo.	*	*I"Canto 1mo.	*
*I'org	*	*I'vl 2	*I'vl 1	*I'T 1	*	*I'S 1	*
*Iorgan	*	*Ivioln	*Ivioln	*Itenor	*	*Isoprn	*
*ICklav	*	*ICstr	*ICstr	*ICvox	*	*ICvox	*
*clefF4	*	*clefG2	*clefG2	*clefC4	*	*clefC1	*
*k[b-e-]	*	*k[b-e-]	*k[b-e-]	*k[b-]	*	*k[b-e-]	*
*c:	*	*c:	*c:	*c:	*	*c:	*
*M2/2	*	*	*	*M2/2	*	*M2/2	*
*met(c)	*	*	*	*met(c|)	*	*met(c|)	*
=1	=1	=1	=1	=1	=1	=1	=1
!LO:TX:t=P:problem=przy kluczu BB- E- B-	!	!	!	!LO:TX:a:i:t=Plankt pierwſzy	!	!LO:TX:a:i:t=Planctus\nprimus	!
!LO:TX:b:i:t=Gorzkie zale	!	!LO:TX:a:t=Wprzod piewac\nalbo grac	!LO:TX:a:t=Jezeli ſie podoba\nwprzod grac a ie\nzeli to ſpiewac	!LO:TX:t=P:problem=przy kluczu brak bemola e-	!	!LO:TX:t=P:problem=przy kluczu b- e- ee-	!
!LO:TX:a:i:t=Planctus 1mus	!	!LO:TX:a:t=Gorskie Zale\nTacet	!LO:TX:a:t=Gorskie zale\nTacet	!LO:TX:t=P:problem=partie wokalne rozpisane zgodnie z podziałem na zwrotki	!	!LO:TX:t=P:problem=partie wokalne rozpisane zgodnie z podziałem na zwrotki	!
4.C/	.	1ryy	1ryy	4.c\	Gorz-	4.ee-\	Gorz-
8C/	.	.	.	8c\	-kie	8ee-\	-kie
!	!	!	!	!LO:TX:t=P:problem=♯ above	!	!	!
!	!	!	!	!LO:N:acc=#	!	!	!
4G\	.	.	.	4Bn\	ża-	4dd\	za-
4G\	n	.	.	4B\	-le	4dd\	-le
=2	=2	=2	=2	=2	=2	=2	=2
4D/	.	1ryy	1ryy	4d\	przy-	4ff\	przy-
4E-X\	.	.	.	(16e-X\LL	-by-	(16gg\LL	-by-
.	.	.	.	16d\JJ)	.	16ff\JJ)	.
.	.	.	.	(16c\LL	.	(16ee-\LL	.
.	.	.	.	16B-\JJ)	.	16dd\JJ)	.
4F\	.	.	.	4A/	-way-	4cc\	-way-
.	n	.	.	.	.	.	.
4F\	.	.	.	4A,</	-cie,	4cc\	-cie,
=3	=3	=3	=3	=3	=3	=3	=3
!	!	!	!	!LO:SIC:v:s=4e-\	!	!	!
4.E-\	.	1ryy	1ryy	4e\	ser-	4gg\	Ser-
!	!	!	!	!LO:SIC:v:s=(8e-\L	!	!	!
.	.	.	.	(8e\L	-ce	(8gg\L	-ce
8E-\	.	.	.	8d\J)	.	8ff\J)	.
4A-X\	.	.	.	4c\	mo-	4ee-\	mo-
4A-\	.	.	.	4c\	-ie	4ee-\	-ie
=4	=4	=4	=4	=4	=4	=4	=4
4.F\	6	1ryy	1ryy	4.d\	prze-	4.ff\	prze-
8F\	5	.	.	8c\	-ni-	8ee-\	-ni-
!	!	!	!	!LO:TX:t=P:problem=♯ above	!	!	!
!	!	!	!	!LO:N:acc=#	!	!	!
4G\	.	.	.	4Bn\	-kay-	4dd\	-kay-
.	n	.	.	.	.	.	.
4G\	.	.	.	4B\	-cie	4dd\	-cie
!	!	!	!	!LO:LB:g=original	!	!LO:LB:g=original	!
=5	=5	=5	=5	=5	=5	=5	=5
4C/	.	1ryy	1ryy	4c\	Ser-	4ee-\	Ser-
4C/	.	.	.	(8c\L	-ce	(8ee-\L	-ce
.	.	.	.	8B-\J)	.	8dd\J)	.
4F\	.	.	.	4A/	mo-	4cc\	mo-
.	n	.	.	.	.	.	.
4F\	.	.	.	4A/	-ie	4cc\	-ie
=6	=6	=6	=6	=6	=6	=6	=6
4F\	.	1ryy	1ryy	4A/	prze-	4cc\	prze-
*	*	*	*	*2\right	*	*	*
!	!	!	!	!	!	!LO:SIC:v:s=4dd\	!
8D\L	.	.	.	2B-\	-ni-	4dd-X\	-ni-
8E-\J	.	.	.	.	.	.	.
*	*	*	*	*	*	*2\right	*
!LO:N:vis=4	!	!	!	!	!	!	!
2F\	.	.	.	.	.	2cc\	-kay-
.	.	.	.	4A/	-kay-	.	.
=7	=7	=7	=7	=7	=7	=7	=7
1BB-	.	1ryy	1ryy	1B-	-cie,	1b-	-cie,
!LO:LB:g=original	!	!	!	!	!	!	!
=8!|:	=8!|:	=8!|:	=8!|:	=8!|:	=8!|:	=8!|:	=8!|:
*>B	*	*>B	*>B	*>B	*	*>B	*
2r	.	1ryy	1ryy	2r	.	2r	.
2BB-/	.	.	.	2B-\	Ach	2dd\	ach
=9	=9	=9	=9	=9	=9	=9	=9
*2\right	*	*	*	*	*	*	*
2F\	.	1ryy	1ryy	2A/	Je-	2cc\	Je-
4F\	.	.	.	4A/	-zus	4cc\	-zus
4C/	.	.	.	4c\	om-	4ee-\	om-
=10	=10	=10	=10	=10	=10	=10	=10
!	!	!	!	!LO:TX:t=P:problem=♯ above	!	!	!
!	!	!	!	!LO:N:acc=#	!	!	!
2G\	.	1ryy	1ryy	2Bn\	-dle-	2dd\	-dle-
2GG/	n	.	.	2B\	-wa	2dd\	-wa
!	!	!	!	!	!	!LO:LB:g=original	!
=11	=11	=11	=11	=11	=11	=11	=11
2r	.	1ryy	1ryy	2r	.	2r	.
!	!	!	!	!LO:N:acc=#	!	!	!
!	!	!	!	!LO:TX:t=P:problem=♯ above	!	!	!
4GG/	n	.	.	4Bn\	Krwa-	4dd\	Krwa-
4GG/	.	.	.	4B\	-wy	4dd\	-wy
=12	=12	=12	=12	=12	=12	=12	=12
2C/	.	1ryy	1ryy	2c\	pot	2ee-\	pot
2r	.	.	.	2r	.	2r	.
!	!	!	!	!LO:LB:g=original	!	!	!
=13	=13	=13	=13	=13	=13	=13	=13
4F\	.	1ryy	1ryy	4A/	Kwa-	4cc\	Krwa-
.	n	.	.	.	.	.	.
4F\	.	.	.	4A/	-wy	4cc\	-wy
2BB-/	.	.	.	2B-\	pot	2dd\	pot
=14	=14	=14	=14	=14	=14	=14	=14
4E-\	.	1ryy	1ryy	4G/	s_cia-	4b-\	z_Cia-
4D/	.	.	.	(8A/L	.	(8cc\L	.
!	!	!	!	!LO:SIC:v:s=8Bn/J)	!	!	!
.	.	.	.	8B-/J)	.	8dd\J)	.
4C/	.	.	.	4c\	-ła	4ee-\	-ła
!LO:TX:t=P:problem=mixed beam	!	!	!	!	!	!	!
8C/L	.	.	.	4c\	wy-	4ee-\	wy-
8A-X\J	.	.	.	.	.	.	.
=15	=15	=15	=15	=15	=15	=15	=15
2F\	6	1ryy	1ryy	(2c\	-le-	1dd	-le-
.	5	.	.	.	.	.	.
!	!	!	!	!LO:SIC:v:s=2Bn\)	!	!	!
2G\	4	.	.	2B-\)	.	.	.
.	3	.	.	.	.	.	.
=16	=16	=16	=16	=16	=16	=16	=16
1C	.	1ryy	1ryy	1c	-wa	1cc	-wa
!LO:LB:g=original	!	!	!	!LO:LB:g=original	!	!LO:LB:g=original	!
=17:|!	=17:|!	=17:|!	=17:|!	=17:|!	=17:|!	=17:|!	=17:|!
*>C	*	*>C	*>C	*>C	*	*>C	*
*M2/2	*	*M2/2	*M2/2	*	*	*	*
*met(c)	*	*met(c|)	*met(c|)	*	*	*	*
!	!	!	!LO:TX:t=P:problem=przy kluczu b- e- ee-	!	!	!	!
!	!	!LO:TX:t=P:problem=przy kluczu b- e- ee-	!LO:TX:b:i:t=Sÿmphonia	!	!	!	!
!LO:TX:b:i:t=Symphonia	!	!LO:TX:b:i:t=Sÿmphonia	!LO:TX:a:i:t=Planctus Pierwſzÿ	!	!	!	!
4.C/	.	4.cc\	4.ee-\	1ryy	.	1ryy	.
8C/	.	8cc\	8ee-\	.	.	.	.
!	!	!LO:N:acc=#	!	!	!	!	!
4G\	.	4bn/	4dd\	.	.	.	.
.	n	.	.	.	.	.	.
!	!	!LO:N:acc=#	!	!	!	!	!
4G\	.	4b/	4gg\	.	.	.	.
=18	=18	=18	=18	=18	=18	=18	=18
*	*	*2\right	*	*	*	*	*
!	!	!LO:TX:b:t=a 3.	!LO:TX:b:t=a 3 gorzkie zale.	!	!	!	!
2A-X\	7	2.cc\	4gg\	1ryy	.	1ryy	.
.	6	.	8ff\L	.	.	.	.
.	.	.	8ee-\J	.	.	.	.
2G\	#	.	4ff\	.	.	.	.
!	!	!LO:N:acc=#	!	!	!	!	!
.	.	4bn/	4gg\	.	.	.	.
=19	=19	=19	=19	=19	=19	=19	=19
4G\	n	8r	8r	1ryy	.	1ryy	.
.	.	8bn\L	8dd\L	.	.	.	.
4F\	.	8cc\	8ee-X\	.	.	.	.
.	.	8dd\J	8ff\J	.	.	.	.
4E-\	.	4ee-\	4gg\	.	.	.	.
!	!	!	!LO:TX:a:t=vi	!	!	!	!
4E-\	.	4ee-\	4gg\	.	.	.	.
=20	=20	=20	=20	=20	=20	=20	=20
!	!	!	!LO:TX:a:t=de	!	!	!	!
4A-X\	.	8r	8r	1ryy	.	1ryy	.
.	.	8cc\L	8ee-\L	.	.	.	.
4G\	.	8dd\	8ff\	.	.	.	.
.	.	8ee-\J	8gg\J	.	.	.	.
4F\	.	4ff\	4aa-X\	.	.	.	.
!	!	!	!LO:TX:a:t=re	!	!	!	!
4F\	.	4ff\	4aa-\	.	.	.	.
!	!	!LO:LB:g=original	!	!	!	!	!
=21	=21	=21	=21	=21	=21	=21	=21
!	!	!	!LO:TX:a:t=tro	!	!	!	!
4B-\	.	8r	8r	1ryy	.	1ryy	.
.	.	8dd\L	8ff\L	.	.	.	.
4A-X\	.	8ee-\	8gg\	.	.	.	.
!	!	!	!LO:SIC:v:s=8aa-\J	!	!	!	!
.	.	8ff\J	8aa\J	.	.	.	.
4G\	.	4gg\	4bb-X\	.	.	.	.
4G\	.	4gg\	4bb-\	.	.	.	.
=22	=22	=22	=22	=22	=22	=22	=22
1D	4	2gg\	1aa	1ryy	.	1ryy	.
.	3	2ff#X\	.	.	.	.	.
!	!	!	!LO:LB:g=original	!	!	!	!
=23	=23	=23	=23	=23	=23	=23	=23
!	!	!LO:TX:t=P:problem=mixed beam	!	!	!	!	!
4G\	n	8gg\L	8gg\L	1ryy	.	1ryy	.
.	.	8bn/J	8dd\	.	.	.	.
4F\	.	8cc\L	8ee-\	.	.	.	.
.	.	8dd\J	8ff\J	.	.	.	.
4E-\	.	4ee-\	4gg\	.	.	.	.
4E-\	.	4ee-\	4gg\	.	.	.	.
=24	=24	=24	=24	=24	=24	=24	=24
4F\	-	(8ff\L	(8aa-X\L	1ryy	.	1ryy	.
.	.	8ee-\J)	8gg\)	.	.	.	.
4FF/	.	(8dd\L	(8ff\	.	.	.	.
.	.	8cc\J)	8ee-\J)	.	.	.	.
4GG/	.	(8gg\L	(8bb-\L	.	.	.	.
!	!	!	!LO:TX:t=P:problem=♭ above	!	!	!	!
.	.	8ff\J)	8aa-X\)	.	.	.	.
4G\	.	(8ee-\L	(8gg\	.	.	.	.
.	.	8dd\J)	8ff\J)	.	.	.	.
!LO:LB:g=original	!	!	!	!	!	!	!
=25	=25	=25	=25	=25	=25	=25	=25
4A-X\	.	(8cc\L	(8ee-\L	1ryy	.	1ryy	.
.	.	8dd\J)	8ff\J)	.	.	.	.
4G\	6	2ee-\	4gg\	.	.	.	.
*	*	*	*2\right	*	*	*	*
4F\	7	.	2ff\	.	.	.	.
4B-\	.	4dd\	.	.	.	.	.
=26	=26	=26	=26	=26	=26	=26	=26
2E-\	10	(8ee-\L	(8gg\L	1ryy	.	1ryy	.
.	.	8ee-\)	8gg\)	.	.	.	.
.	.	(8ee-\	(8gg\	.	.	.	.
.	.	8ee-\J)	8gg\J)	.	.	.	.
2BB-/	5	(8dd\L	(8ff\L	.	.	.	.
.	.	8dd\)	8ff\J)	.	.	.	.
.	.	(8dd\	(8ff\L	.	.	.	.
.	.	8dd\J)	8ff\J)	.	.	.	.
!	!	!LO:LB:g=original	!	!	!	!	!
=27	=27	=27	=27	=27	=27	=27	=27
2C/	.	(8cc\L	(8ee-\L	1ryy	.	1ryy	.
.	.	8cc\)	8ee-\	.	.	.	.
.	.	(8cc\	8ee-\	.	.	.	.
.	.	8cc\J)	8ee-\J)	.	.	.	.
2FF/	-	(8ff\L	(8aa-X\L	.	.	.	.
.	.	8ff\)	8aa-\	.	.	.	.
.	.	(8ff\	8aa-\	.	.	.	.
.	.	8ff\J)	8aa-\J)	.	.	.	.
=28	=28	=28	=28	=28	=28	=28	=28
2BB-/	.	8dd\L	(8ff\L	1ryy	.	1ryy	.
.	.	8dd\	8ff\	.	.	.	.
.	.	8dd\	8ff\	.	.	.	.
.	.	8dd\J	8ff\J)	.	.	.	.
2C/	.	2cc\	2ee-\	.	.	.	.
!	!	!	!LO:LB:g=original	!	!	!	!
=29	=29	=29	=29	=29	=29	=29	=29
!	!	!LO:N:acc=#	!	!	!	!	!
4G\	.	8bn\L	8dd\L	1ryy	.	1ryy	.
.	.	8cc\	8ee-\	.	.	.	.
4F\	6	8dd\	8ff\	.	.	.	.
.	5	8cc\J	8ee-\J	.	.	.	.
4G\	.	4.cc\	2dd\	.	.	.	.
4GG/	.	.	.	.	.	.	.
!	!	!LO:TX:t=P:problem=♯ above	!	!	!	!	!
!	!	!LO:N:acc=#	!	!	!	!	!
.	.	8bn\	.	.	.	.	.
=30	=30	=30	=30	=30	=30	=30	=30
4C/	.	4cc\	4cc\	1ryy	.	1ryy	.
8r	.	8r	8r	.	.	.	.
8C/	.	8cc\	8ee-\	.	.	.	.
!	!	!LO:TX:t=P:problem=♯ below	!	!	!	!	!
!	!	!LO:N:acc=#	!	!	!	!	!
2GG/	.	2bn/	2dd\	.	.	.	.
=31	=31	=31	=31	=31	=31	=31	=31
1C	.	1cc	1cc	1ryy	.	1ryy	.
!LO:LB:g=original	!	!LO:LB:g=original	!	!	!	!	!
=32||	=32||	=32||	=32||	=32||	=32||	=32||	=32||
*M2/2	*	*	*	*M2/2	*	*M2/2	*
*met(c)	*	*	*	*met(c|)	*	*met(c|)	*
!LO:TX:b:i:t=Słonce gwiazdy	!	!LO:TX:a:t=Słonce gwiazdÿ\nTacet	!LO:TX:a:t=Słonce gwiazdÿ\nSpiewac\nTacet	!	!	!	!
4.C/	.	1ryy	1ryy	4.c\	Słon-	4.ee-\	Słon-
8C/	.	.	.	8c\	-ce	8ee-\	-ce
!	!	!	!	!LO:TX:t=P:problem=♯ above	!	!	!
!	!	!	!	!LO:N:acc=#	!	!	!
4G\	.	.	.	4Bn\	gwia-	4dd\	gwia-
.	n	.	.	.	.	.	.
4G\	.	.	.	4B\	-zdy,	4dd\	-zdy,
=33	=33	=33	=33	=33	=33	=33	=33
4D/	.	1ryy	1ryy	4d\	om-	4ff\	om-
4E-\	.	.	.	(16e-X\LL	-dle-	(16gg\LL	-dle-
.	.	.	.	16d\JJ)	.	16ff\JJ)	.
.	.	.	.	(16c\LL	.	(16ee-\LL	.
.	.	.	.	16B-\JJ)	.	16dd\JJ)	.
4F\	.	.	.	4A/	-way-	4cc\	-way-
.	n	.	.	.	.	.	.
4F\	.	.	.	4A,</	-cie:	4cc\	-cie:
=34	=34	=34	=34	=34	=34	=34	=34
!	!	!	!	!LO:SIC:v:s=4e-\	!	!	!
4.E-\	.	1ryy	1ryy	4e\	za-	4gg\	Ża-
!	!	!	!	!LO:SIC:v:s=8e-\	!	!	!
.	.	.	.	(8e\L	-ło-	(8gg\L	-ło-
8E-\	.	.	.	8d\J)	.	8ff\J)	.
4A-X\	.	.	.	4c\	-bą	4ee-\	-bą
4A-\	.	.	.	4c\	sie	4ee-\	sie
=35	=35	=35	=35	=35	=35	=35	=35
4.F\	6	1ryy	1ryy	4.d\	po-	4.ff\	po-
8F\	5	.	.	8c\	-kry-	8ee-\	-kry-
!	!	!	!	!LO:TX:t=P:problem=♯ above	!	!	!
!	!	!	!	!LO:N:acc=#	!	!	!
4G\	.	.	.	4Bn\	-way-	4dd\	-way-
.	n	.	.	.	.	.	.
4G\	.	.	.	4B\	-cie	4dd\	-cie
!	!	!	!	!LO:LB:g=original	!	!LO:LB:g=original	!
=36	=36	=36	=36	=36	=36	=36	=36
4C/	.	1ryy	1ryy	4c\	za-	4ee-\	Ża-
4C/	.	.	.	(8c\L	-ło-	(8ee-\L	-ło-
.	.	.	.	8B-\J)	.	8dd\J)	.
4FF/	.	.	.	4A/	-bą	4cc\	-bą
4FF/	.	.	.	4A/	sie,	4cc\	sie
=37	=37	=37	=37	=37	=37	=37	=37
4FF/	.	1ryy	1ryy	4A/	po-	4cc\	po-
!	!	!	!	!	!	!LO:SIC:v:s=4dd\	!
8D\L	.	.	.	2B-\	-kry-	4dd-X\	-kry-
8E-\J	.	.	.	.	.	.	.
4F\	.	.	.	.	.	2cc\	-way-
4FF/	.	.	.	4A/	-way-	.	.
=38	=38	=38	=38	=38	=38	=38	=38
1BB-	.	1ryy	1ryy	1B-	-cie	1b-	-cie,
!LO:LB:g=original	!	!	!	!	!	!	!
=39!|:	=39!|:	=39!|:	=39!|:	=39!|:	=39!|:	=39!|:	=39!|:
*>D	*	*>D	*>D	*>D	*	*>D	*
2r	.	1ryy	1ryy	2r	.	2r	.
2BB-/	.	.	.	2B-\	Bo	2dd\	bo
=40	=40	=40	=40	=40	=40	=40	=40
2F\	.	1ryy	1ryy	2A/	Je-	2cc\	Je-
4F\	.	.	.	4A/	-zus	4cc\	-zus
4C/	.	.	.	4c\	ko-	4ee-\	ko-
=41	=41	=41	=41	=41	=41	=41	=41
!	!	!	!	!LO:TX:t=P:problem=♯ above	!	!	!
!	!	!	!	!LO:N:acc=#	!	!	!
4G\	.	1ryy	1ryy	2Bn\	-cha-	2dd\	-cha-
4r	.	.	.	.	.	.	.
2GG/	n	.	.	2B\	-ny	2dd\	-ny
!	!	!	!	!	!	!LO:LB:g=original	!
=42	=42	=42	=42	=42	=42	=42	=42
2r	.	1ryy	1ryy	2r	.	2r	.
!	!	!	!	!LO:N:acc=#	!	!	!
!	!	!	!	!LO:TX:t=P:problem=♯ above	!	!	!
4GG/	.	.	.	4Bn\	z_ło-	4dd\	z_ło-
.	n	.	.	.	.	.	.
4GG/	.	.	.	4B\	-try	4dd\	-try
=43	=43	=43	=43	=43	=43	=43	=43
2C/	.	1ryy	1ryy	2c\	iest	2ee-\	iest
2r	.	.	.	2r	.	2r	.
!	!	!	!	!LO:LB:g=original	!	!	!
=44	=44	=44	=44	=44	=44	=44	=44
4F\	.	1ryy	1ryy	4A/	z_ło-	4cc\	z_ło-
4F\	.	.	.	4A/	-try	4cc\	-try
2BB-/	.	.	.	2B-\	ieſt	2dd\	iest
=45	=45	=45	=45	=45	=45	=45	=45
4E-\	.	1ryy	1ryy	4G/	Sro-	4b-\	Sro-
4D/	.	.	.	(8A/L	-mo-	(8cc\L	-mo-
!	!	!	!	!LO:SIC:v:s=8Bn/J)	!	!	!
.	.	.	.	8B-/J)	.	8dd\J)	.
4C/	.	.	.	4c\	-tnie	4ee-\	-tnie
!LO:TX:t=P:problem=mixed beam	!	!	!	!	!	!	!
8C/L	.	.	.	4c\	zro-	4ee-\	zro-
8A-X\J	.	.	.	.	.	.	.
=46	=46	=46	=46	=46	=46	=46	=46
2F\	6	1ryy	1ryy	(2c\	-wna-	1dd	-wna-
.	5	.	.	.	.	.	.
!	!	!	!	!LO:SIC:v:s=2Bn\)	!	!	!
2G\	4	.	.	2B-\)	.	.	.
.	3	.	.	.	.	.	.
=47	=47	=47	=47	=47	=47	=47	=47
1C	.	1ryy	1ryy	1c	-ny	1cc	-ny
!LO:LB:g=original	!	!	!	!LO:LB:g=original	!	!LO:LB:g=original	!
=48:|!	=48:|!	=48:|!	=48:|!	=48:|!	=48:|!	=48:|!	=48:|!
*>E	*	*>E	*>E	*>E	*	*>E	*
*M2/2	*	*M2/2	*M2/2	*	*	*	*
*met(c)	*	*met(c|)	*met(c|)	*	*	*	*
!LO:TX:b:i:t=Symphonia	!	!LO:TX:b:i:t=Sÿmphonia	!LO:TX:b:i:t=Sÿmphonia Słonce gwiazdÿ	!	!	!	!
4.C/	.	4.c/	4.e-/	1ryy	.	1ryy	.
8C/	.	8c/	8e-/	.	.	.	.
!	!	!LO:SIC:v:s=4Bn/	!	!	!	!	!
4G\	.	4B-/	4d/	.	.	.	.
!	!	!LO:SIC:v:s=4Bn/	!	!	!	!	!
4G\	.	4B-/	4d/	.	.	.	.
=49	=49	=49	=49	=49	=49	=49	=49
4A-X\	.	8r	8r	1ryy	.	1ryy	.
.	.	8c/L	8e-/L	.	.	.	.
4G\	.	8d/	8f/	.	.	.	.
.	.	8e-/J	8g/J	.	.	.	.
2F\	.	4f/	4a-X/	.	.	.	.
.	.	4f/	4a-/	.	.	.	.
!	!	!	!LO:LB:g=original	!	!	!	!
=50	=50	=50	=50	=50	=50	=50	=50
4G\	n	8r	8r	1ryy	.	1ryy	.
.	.	8B-/L	8d/L	.	.	.	.
4F\	.	8c/	8e-/	.	.	.	.
.	.	8d/J	8f/J	.	.	.	.
2E-\	.	4e-X/	4g/	.	.	.	.
.	.	4e-/	4g/	.	.	.	.
=51	=51	=51	=51	=51	=51	=51	=51
2F\	.	8f/L	(8a-X/L	1ryy	.	1ryy	.
.	.	8e-/J	8g/)	.	.	.	.
.	.	8d/L	(8f/	.	.	.	.
.	.	8c/J	8e-/J)	.	.	.	.
4G\	.	4c/	2d/	.	.	.	.
4GG/	.	4Bn/	.	.	.	.	.
=52	=52	=52	=52	=52	=52	=52	=52
1C	.	1c	1c	1ryy	.	1ryy	.
=53	=53	=53	=53	=53	=53	=53	=53
4G\	.	8r	8r	1ryy	.	1ryy	.
!	!	!LO:SIC:v:s=8Bn/L	!	!	!	!	!
.	.	8B-/L	8d/L	.	.	.	.
4F\	.	8c/	8e-/	.	.	.	.
.	.	8d/J	8f/J	.	.	.	.
2E-\	.	4e-/	4g/	.	.	.	.
.	.	4e-/	4g/	.	.	.	.
!	!	!LO:LB:g=original	!	!	!	!	!
=54	=54	=54	=54	=54	=54	=54	=54
2F\	.	(8f/L	(8a-X/L	1ryy	.	1ryy	.
.	.	8e-/)	8g/)	.	.	.	.
.	.	(8d/	(8f/	.	.	.	.
.	.	8c/J)	8e-/J)	.	.	.	.
2FF/	.	(8f/L	(8a-X/L	.	.	.	.
.	.	8e-/)	8g/)	.	.	.	.
.	.	(8d/	(8f/	.	.	.	.
.	.	8c/J)	8e-/J)	.	.	.	.
=55	=55	=55	=55	=55	=55	=55	=55
4GG/	4	4c/	2d/	1ryy	.	1ryy	.
4GG/	3	4Bn/	.	.	.	.	.
2C/	.	2c/	2c/	.	.	.	.
!LO:LB:g=original	!	!	!	!	!	!	!
=56!|:	=56!|:	=56!|:	=56!|:	=56!|:	=56!|:	=56!|:	=56!|:
*>F	*	*>F	*>F	*>F	*	*>F	*
!	!	!LO:N:acc=#	!	!	!	!	!
4GG/	.	4Bn/	4d/	1ryy	.	1ryy	.
.	n	.	.	.	.	.	.
4GG/	.	4B/	4d/	.	.	.	.
4C/	.	4c/	4e-/	.	.	.	.
4r	.	4r	4r	.	.	.	.
!	!	!	!LO:LB:g=original	!	!	!	!
=57	=57	=57	=57	=57	=57	=57	=57
4F\	.	4A/	4c/	1ryy	.	1ryy	.
.	n	.	.	.	.	.	.
4F\	.	4B-/	4c/	.	.	.	.
4BB-/	.	4A/	4d/	.	.	.	.
4r	.	4r	4r	.	.	.	.
=58	=58	=58	=58	=58	=58	=58	=58
4F\	.	4f/	4a-X/	1ryy	.	1ryy	.
.	-	.	.	.	.	.	.
4F\	.	4f/	4a-/	.	.	.	.
2C/	n	2en/	2g/	.	.	.	.
=59	=59	=59	=59	=59	=59	=59	=59
2C/	-	(8e-X/L	8g/L	1ryy	.	1ryy	.
.	.	8f/J)	8a-X/J	.	.	.	.
.	.	(8e-/L	8g/L	.	.	.	.
.	.	8d/J)	8f/J	.	.	.	.
8C/L	.	2c/	2e-/	.	.	.	.
8D/J	.	.	.	.	.	.	.
8E-\L	.	.	.	.	.	.	.
8F\J	.	.	.	.	.	.	.
=60	=60	=60	=60	=60	=60	=60	=60
!	!	!LO:SIC:v:s=4Bn/	!	!	!	!	!
2G\	.	4B-/	4d/	1ryy	.	1ryy	.
.	.	8A/L	8c/L	.	.	.	.
!	!	!LO:SIC:v:s=8Bn/J	!	!	!	!	!
.	.	8B-/J	8d/J	.	.	.	.
2GG/	.	4c/	4e-/	.	.	.	.
!	!	!LO:SIC:v:s=8Bn/L	!	!	!	!	!
.	.	8B-/L	8d/L	.	.	.	.
.	.	8c/J	8e-/J	.	.	.	.
!	!	!LO:LB:g=original	!	!	!	!	!
=61	=61	=61	=61	=61	=61	=61	=61
2GG/	.	4d/	4f/	1ryy	.	1ryy	.
.	4	8.c/L	8.e-/L	.	.	.	.
!	!	!LO:SIC:v:s=16Bn/Jk	!	!	!	!	!
.	3	16B-/Jk	16d/Jk	.	.	.	.
2C/	.	2c/	2c/	.	.	.	.
!LO:LB:g=original	!	!	!LO:LB:g=original	!	!	!	!
=62:|!	=62:|!	=62:|!	=62:|!	=62:|!	=62:|!	=62:|!	=62:|!
*>G	*	*>G	*>G	*>G	*	*>G	*
*M2/2	*	*	*	*M2/2	*	*M2/2	*
*met(c)	*	*	*	*met(c|)	*	*met(c|)	*
!LO:TX:b:i:t=Rospuscie sie twarde Oczy	!	!LO:TX:a:t=Roſpuscie Sie\nTacet	!LO:TX:a:t=Roſpuscie Sie\nTacet	!	!	!	!
4.C/	.	1ryy	1ryy	4.c\	Ros-	4.ee-\	Ros-
8C/	.	.	.	8c\	-pus-	8ee-\	-pus-
!	!	!	!	!LO:TX:t=P:problem=♯ above	!	!	!
!	!	!	!	!LO:N:acc=#	!	!	!
4G\	.	.	.	4Bn\	-cie	4dd\	-cie
.	n	.	.	.	.	.	.
4G\	.	.	.	4B\	sie,	4dd\	sie,
=63	=63	=63	=63	=63	=63	=63	=63
4D\	.	1ryy	1ryy	4d\	twar-	4ff\	twar-
4E-\	.	.	.	(16e-X\LL	-de	(16gg\LL	-de
.	.	.	.	16d\JJ)	.	16ff\JJ)	.
.	.	.	.	(16c\LL	.	(16ee-\LL	.
.	.	.	.	16B-\JJ)	.	16dd\JJ)	.
4F\	.	.	.	4A/	O-	4cc\	O-
.	n	.	.	.	.	.	.
4F\	.	.	.	4A/	czẏ,	4cc\	-czy:
=64	=64	=64	=64	=64	=64	=64	=64
!	!	!	!	!LO:SIC:v:s=4e-\	!	!	!
4.E-\	.	1ryy	1ryy	4e\	Niech	4gg\	Niech
!	!	!	!	!LO:SIC:v:s=8e-\	!	!	!
.	.	.	.	(8e\L	sie	(8gg\L	sie
8E-\	.	.	.	8d\J)	.	8ff\J)	.
4A-X\	.	.	.	4c\	z_was	4ee-\	z_was
4A-\	.	.	.	4c\	łes	4ee-\	łez
=65	=65	=65	=65	=65	=65	=65	=65
4.F\	6	1ryy	1ryy	4.d\	rze-	4.ff\	rze-
8F\	5	.	.	8c\	-ką	8ee-\	-ką
!	!	!	!	!LO:TX:t=P:problem=♯ above	!	!	!
!	!	!	!	!LO:N:acc=#	!	!	!
4G\	.	.	.	4Bn\	to-	4dd\	to-
4G\	.	.	.	4B\	-czy	4dd\	-czy
!	!	!	!	!LO:LB:g=original	!	!LO:LB:g=original	!
=66	=66	=66	=66	=66	=66	=66	=66
4C/	.	1ryy	1ryy	4c\	Niech	4ee-\	Niech
4C/	.	.	.	(8c\L	sie	(8ee-\L	sie
.	.	.	.	8B-\J)	.	8dd\J)	.
4F\	.	.	.	4A/	z_was	4cc\	z_waz
4F\	.	.	.	4A/	łez,	4cc\	łez,
=67	=67	=67	=67	=67	=67	=67	=67
4F\	.	1ryy	1ryy	4A/	rze-	4cc\	rze-
!	!	!	!	!	!	!LO:SIC:v:s=4dd\	!
8D\L	.	.	.	2B-\	-ką	4dd-X\	-ką
8E-\J	.	.	.	.	.	.	.
4F\	.	.	.	.	.	2cc\	to-
4FF/	.	.	.	4A/	to-	.	.
=68	=68	=68	=68	=68	=68	=68	=68
1BB-	.	1ryy	1ryy	1B-	-czy	1b-	-czy,
!LO:LB:g=original	!	!	!	!	!	!	!
=69!|:	=69!|:	=69!|:	=69!|:	=69!|:	=69!|:	=69!|:	=69!|:
*>H	*	*>H	*>H	*>H	*	*>H	*
2r	.	1ryy	1ryy	2r	.	2r	.
2BB-/	.	.	.	2B-\	Je-	2dd\	Je-
=70	=70	=70	=70	=70	=70	=70	=70
2F\	.	1ryy	1ryy	2A/	-zus	2cc\	-zus
4F\	.	.	.	4A/	krwią	4cc\	krwią
4C/	.	.	.	4c\	zbro-	4ee-\	zbro-
=71	=71	=71	=71	=71	=71	=71	=71
!	!	!	!	!LO:TX:t=P:problem=♯ above	!	!	!
!	!	!	!	!LO:N:acc=#	!	!	!
2G\	.	1ryy	1ryy	2Bn\	-czo-	2dd\	-czo-
2GG/	n	.	.	2B\	-ny	2dd\	-ny
!	!	!	!	!	!	!LO:LB:g=original	!
=72	=72	=72	=72	=72	=72	=72	=72
2r	.	1ryy	1ryy	2r	.	2r	.
!	!	!	!	!LO:N:acc=#	!	!	!
!	!	!	!	!LO:TX:t=P:problem=♯ above	!	!	!
4GG/	.	.	.	4Bn\	Wi-	4dd\	Wi-
.	n	.	.	.	.	.	.
4GG/	.	.	.	4B\	-si	4dd\	-si
=73	=73	=73	=73	=73	=73	=73	=73
2C/	.	1ryy	1ryy	2c\	iuz	2ee-\	iuz.
2r	.	.	.	2r	.	2r	.
!	!	!	!	!LO:LB:g=original	!	!	!
=74	=74	=74	=74	=74	=74	=74	=74
4F\	.	1ryy	1ryy	4A/	wi-	4cc\	wi-
4F\	.	.	.	4A/	-si	4cc\	-si
2BB-/	.	.	.	2B-\	iuz	2dd\	iuz
=75	=75	=75	=75	=75	=75	=75	=75
4E-\	.	1ryy	1ryy	4G/	Na	4b-\	na
4D\	.	.	.	(8A\L	Krzy-	(8cc\L	Krzy-
!	!	!	!	!LO:SIC:v:s=8Bn\J	!	!	!
.	.	.	.	8B-\J)	.	8dd\J)	.
4C/	.	.	.	4c\	-zu	4ee-\	-zu
!LO:TX:t=P:problem=mixed beam	!	!	!	!	!	!	!
8C/L	.	.	.	4c\	U-	4ee-\	u-
8A-X\J	.	.	.	.	.	.	.
=76	=76	=76	=76	=76	=76	=76	=76
2F\	.	1ryy	1ryy	(2c\	-mo-	1dd	-mo-
!	!	!	!	!LO:SIC:v:s=2Bn\	!	!	!
2G\	.	.	.	2B-\)	-rzo-	.	-rzo-
=77	=77	=77	=77	=77	=77	=77	=77
1C	.	1ryy	1ryy	1c	-ny	1cc	-ny
!LO:LB:g=original	!	!	!	!	!	!	!
=78:|!	=78:|!	=78:|!	=78:|!	=78:|!	=78:|!	=78:|!	=78:|!
*>I	*	*>I	*>I	*>I	*	*>I	*
*M2/2	*	*M2/2	*M2/2	*	*	*	*
*met(c)	*	*met(c|)	*met(c|)	*	*	*	*
!LO:TX:b:i:t=Symphonia	!	!LO:TX:b:i:t=Symphonia	!LO:TX:b:i:t=Sÿmphonia Rospuſcie sie	!	!	!	!
4.C/	.	4.cc\	4.ee-\	1ryy	.	1ryy	.
8C/	.	8cc\	8ee-\	.	.	.	.
4GG/	.	4bn\	4dd\	.	.	.	.
4GG/	.	4b\	4dd\	.	.	.	.
=79	=79	=79	=79	=79	=79	=79	=79
4D\	.	4dd\	4ff\	1ryy	.	1ryy	.
!	!	!LO:TX:b:t=a3	!	!	!	!	!
4E-\	.	(16ee-\LL	(16gg\LL	.	.	.	.
.	.	16dd\JJ)	16ff\)	.	.	.	.
.	.	(16cc\LL	(16ee-\	.	.	.	.
!	!	!LO:SIC:v:s=16bn\JJ)	!	!	!	!	!
.	.	16b-\JJ)	16dd\JJ)	.	.	.	.
4F\	.	4a/	4cc\	.	.	.	.
4FF/	.	4a/	4cc\	.	.	.	.
=80	=80	=80	=80	=80	=80	=80	=80
4.C/	.	4.ee-\	4.gg\	1ryy	.	1ryy	.
8E-\	.	8ee-\	8gg\	.	.	.	.
4F\	.	(16ff\LL	16aa-X\LL	.	.	.	.
.	.	16ee-\JJ)	16gg\JJ	.	.	.	.
.	6	(16dd\LL	(16ff\LL	.	.	.	.
.	5	16cc\JJ)	16ee-\JJ)	.	.	.	.
!	!	!LO:TX:t=P:problem=♯ above	!	!	!	!	!
!	!	!LO:N:acc=#	!	!	!	!	!
4G\	n	8bn\L	8dd\L	.	.	.	.
.	.	8b\J	8dd\J	.	.	.	.
!	!	!LO:LB:g=original	!	!	!	!	!
=81	=81	=81	=81	=81	=81	=81	=81
4G\	.	4bn\	4dd\	1ryy	.	1ryy	.
4F\	.	8cc\L	(8ee-\L	.	.	.	.
.	.	8dd\J	8ff\J)	.	.	.	.
2E-\	.	4ee-\	4gg\	.	.	.	.
.	.	4ee-\	4gg\	.	.	.	.
=82	=82	=82	=82	=82	=82	=82	=82
2B-\	.	2ee-\	1ff	1ryy	.	1ryy	.
2BB-/	.	2dd\	.	.	.	.	.
=83	=83	=83	=83	=83	=83	=83	=83
4E-\	.	4ee-\	4gg\	1ryy	.	1ryy	.
4G\	.	[4gg\	4bb-X\	.	.	.	.
2D/	4	4gg\]	2aa\	.	.	.	.
.	3	4ff#X\	.	.	.	.	.
!	!	!	!LO:LB:g=original	!	!	!	!
=84	=84	=84	=84	=84	=84	=84	=84
2GG/	.	8gg\L	8bb-\L	1ryy	.	1ryy	.
.	.	8gg\J	8bb-\	.	.	.	.
.	.	8ff\L	8aa\	.	.	.	.
.	.	8gg\J	8bb-\J	.	.	.	.
2FF/	-	8ff\L	8aa-X\L	.	.	.	.
.	.	8ff\J	8aa-\	.	.	.	.
.	.	8ee-\L	8gg\	.	.	.	.
.	.	8ff\J	8aa-\J	.	.	.	.
!LO:LB:g=original	!	!	!	!	!	!	!
=85!|:	=85!|:	=85!|:	=85!|:	=85!|:	=85!|:	=85!|:	=85!|:
*>J	*	*>J	*>J	*>J	*	*>J	*
2E-\	.	8ee-\L	8gg\L	1ryy	.	1ryy	.
.	.	8ee-\	8gg\J	.	.	.	.
.	.	8dd\	8ff\L	.	.	.	.
.	.	8ee-\J	8gg\J	.	.	.	.
!	!	!LO:TX:b:t=2 razy bis	!	!	!	!	!
2C/	.	8cc\L	8ee-\L	.	.	.	.
.	.	8cc\J	8ee-\J	.	.	.	.
!	!	!LO:N:acc=#	!	!	!	!	!
.	.	8bn\L	8dd\L	.	.	.	.
.	.	8cc\J	8ee-\J	.	.	.	.
=86	=86	=86	=86	=86	=86	=86	=86
2F\	.	(8dd\L	(8ff\L	1ryy	.	1ryy	.
.	.	8ee-\J)	8gg\J)	.	.	.	.
!	!	!	!LO:SIC:v:s=(8aa-\L	!	!	!	!
.	.	(8ff\L	(8aa\L	.	.	.	.
.	.	8ee-\J)	8gg\J)	.	.	.	.
2FF/	.	(8dd\L	(8ff\L	.	.	.	.
.	.	8cc\J)	8ee-\J)	.	.	.	.
!	!	!LO:SIC:v:s=(8bn/L	!	!	!	!	!
.	.	(8b-/L	8dd\L	.	.	.	.
.	.	8a/J)	8cc\J	.	.	.	.
!	!	!LO:LB:g=original	!	!	!	!	!
=87	=87	=87	=87	=87	=87	=87	=87
!	!	!LO:SIC:v:s=(8bn\L	!	!	!	!	!
2GG/	n	(8b-\L	8dd\L	1ryy	.	1ryy	.
.	.	16a\L	16cc\L	.	.	.	.
!	!	!LO:SIC:v:s=16bn\JJ)	!	!	!	!	!
.	.	16b-\JJ)	16dd\JJ	.	.	.	.
.	.	8cc\L	8ee-\L	.	.	.	.
!	!	!LO:SIC:v:s=16bn\L	!	!	!	!	!
.	.	16b-\L	16dd\L	.	.	.	.
.	.	16cc\JJ	16ee-\JJ	.	.	.	.
4F\	.	4.dd\	4.ff\	.	.	.	.
4A-X\	.	.	.	.	.	.	.
.	.	8cc\	8ee-\	.	.	.	.
=88	=88	=88	=88	=88	=88	=88	=88
!LO:SIC:v:s=4A-\	!	!	!	!	!	!	!
4A\	.	2cc\	2ee-\	1ryy	.	1ryy	.
8G\L	.	.	.	.	.	.	.
8F\J	.	.	.	.	.	.	.
4G\	.	4cc\	2dd\	.	.	.	.
4GG/	.	4bn\	.	.	.	.	.
!	!	!	!LO:LB:g=original	!	!	!	!
=89	=89	=89	=89	=89	=89	=89	=89
4C/	.	4cc\	4cc\	1ryy	.	1ryy	.
8r	.	8r	8r	.	.	.	.
8C/	.	8cc\	8ee-\	.	.	.	.
2GG/	.	4.cc\	2dd\	.	.	.	.
!	!	!LO:SIC:v:s=8bn\	!	!	!	!	!
.	.	8b-\	.	.	.	.	.
=90	=90	=90	=90	=90	=90	=90	=90
!	!	!LO:TX:b:i:t=Planctus 2dus\nVerte Cito	!LO:TX:b:i:t=Vertatur Cito	!	!	!	!
1C	.	1cc	1cc	1ryy	.	1ryy	.
==:|!	==:|!	==:|!	==:|!	==:|!	==:|!	==:|!	==:|!
*-	*-	*-	*-	*-	*-	*-	*-
!!!system-decoration: [(g1)][(g2)]<s5>
!!!RDF**kern: < = below
!!!ENC: Andrzej Gręziak
!!!END: 2021-01-05
!!!ENC: Andrzej Kubiczek
!!!END: 2021-12-31
